packages/icons/svg/Outline/arrow-circle-right.svg

<svg width="24" height="24" viewBox="0 0 24 24" fill="none" xmlns="http://www.w3.org/2000/svg">
<g id="Icon/Outline/arrow-circle-right">
<path id="Mask" fill-rule="evenodd" clip-rule="evenodd" d="M16.999 12.0054C16.999 12.0034 17 12.0024 17 12.0004C17 11.9674 16.984 11.9404 16.981 11.9084C16.973 11.8124 16.961 11.7164 16.924 11.6264C16.897 11.5584 16.851 11.5044 16.81 11.4444C16.779 11.4004 16.762 11.3494 16.724 11.3094L13.861 8.3094C13.479 7.9094 12.847 7.8954 12.447 8.2764C12.048 8.6574 12.033 9.2904 12.414 9.6904L13.664 11.0004H8C7.448 11.0004 7 11.4474 7 12.0004C7 12.5524 7.448 13.0004 8 13.0004H13.586L12.293 14.2934C11.902 14.6834 11.902 15.3164 12.293 15.7074C12.488 15.9024 12.744 16.0004 13 16.0004C13.256 16.0004 13.512 15.9024 13.707 15.7074L16.707 12.7074C16.798 12.6164 16.872 12.5064 16.922 12.3854C16.973 12.2644 16.998 12.1354 16.999 12.0054ZM12 20C7.589 20 4 16.411 4 12C4 7.589 7.589 4 12 4C16.411 4 20 7.589 20 12C20 16.411 16.411 20 12 20ZM12 2C6.486 2 2 6.486 2 12C2 17.514 6.486 22 12 22C17.514 22 22 17.514 22 12C22 6.486 17.514 2 12 2Z" fill="#000000"/>
</g>
</svg>

<svg fill="none" height="24" viewBox="0 0 24 24" width="24" xmlns="http://www.w3.org/2000/svg"><path clip-rule="evenodd" d="m16.999 12.0054c0-.002.001-.003.001-.005 0-.033-.016-.06-.019-.092-.008-.096-.02-.192-.057-.282-.027-.068-.073-.122-.114-.182-.031-.044-.048-.095-.086-.135l-2.863-3c-.382-.4-1.014-.414-1.414-.033-.399.381-.414 1.014-.033 1.414l1.25 1.31h-5.66398c-.552 0-1 .447-1 1 0 .552.448 1 1 1h5.58598l-1.293 1.293c-.391.39-.391 1.023 0 1.414.195.195.451.293.707.293s.512-.098.707-.293l3-3c.091-.091.165-.201.215-.322.051-.121.076-.25.077-.38zm-4.999 7.9947c-4.41098 0-7.99998-3.589-7.99998-8 0-4.41104 3.589-8.00003 7.99998-8.00003 4.411 0 8 3.58899 8 8.00003 0 4.411-3.589 8-8 8zm0-18.0001c-5.514 0-10 4.486-10 10s4.486 10 10 10 10-4.486 10-10-4.486-10-10-10z" fill="#6b7280" fill-rule="evenodd"/></svg>
